X: 14
T: The Red Box
R: reel
M: 4/4
L: 1/8
K: Dmix
|:afge fdd/d/d|cABG ADD/D/D|~FDFG AGAB|cBAB cdeg|
afge fdd/d/d|cABG ADD/D/D|FDFG AGAB|1cAGE ~EDD2:|2cAG~E EDDB||
|:~cBce gece|d^cdf afdf|gabg fgaf|e^def ecAB|
~cBce gece|d^cdf afdf|g/g/gag fddB|cAGE EDD2:|

%%newpage

